docs/img/icons/architect.svg

<svg width="50" height="50" viewBox="0 0 50 50" fill="none" xmlns="http://www.w3.org/2000/svg">
<path d="M42.9688 6.25C41.6548 6.25154 40.3853 6.7261 39.3926 7.58686C38.3999 8.44762 37.7502 9.63703 37.5625 10.9375H28.125V12.5H37.5V42.9688C37.5 43.1759 37.5823 43.3747 37.7288 43.5212C37.8753 43.6677 38.0741 43.75 38.2812 43.75C38.4884 43.75 38.6872 43.6677 38.8337 43.5212C38.9802 43.3747 39.0625 43.1759 39.0625 42.9688C39.0625 41.9327 39.474 40.9392 40.2066 40.2066C40.9392 39.474 41.9327 39.0625 42.9688 39.0625C44.0048 39.0625 44.9983 39.474 45.7309 40.2066C46.4635 40.9392 46.875 41.9327 46.875 42.9688V43.1328C46.8729 44.1247 46.478 45.0753 45.7767 45.7767C45.0753 46.478 44.1247 46.8729 43.1328 46.875H3.125V30.7164C4.9009 34.1616 7.58846 37.0531 10.8947 39.0758C14.201 41.0986 17.9991 42.1749 21.875 42.1875C22.0822 42.1875 22.2809 42.1052 22.4274 41.9587C22.5739 41.8122 22.6562 41.6134 22.6562 41.4062C22.6562 41.1991 22.5739 41.0003 22.4274 40.8538C22.2809 40.7073 22.0822 40.625 21.875 40.625C18.9431 40.6193 16.0507 39.9494 13.4148 38.6656L13.9 36.8563C14.3831 36.8263 14.8442 36.6437 15.2168 36.3348C15.5895 36.0259 15.8544 35.6067 15.9734 35.1375L18.5453 25.5469C19.1293 25.6549 19.7195 25.7256 20.3125 25.7586V26.5625C20.3125 26.7697 20.3948 26.9684 20.5413 27.1149C20.6878 27.2614 20.8865 27.3438 21.0938 27.3438C21.301 27.3438 21.4997 27.2614 21.6462 27.1149C21.7927 26.9684 21.875 26.7697 21.875 26.5625V25.7586C22.4679 25.7261 23.0582 25.6559 23.6422 25.5484L26.2133 35.1352C26.3319 35.6047 26.5968 36.0243 26.9697 36.3332C27.3426 36.6422 27.8041 36.8246 28.2875 36.8539L28.9328 39.2633C28.9771 39.4297 29.075 39.5768 29.2115 39.6818C29.348 39.7867 29.5153 39.8437 29.6875 39.8438C29.7558 39.8437 29.8238 39.8347 29.8898 39.8172C29.989 39.7906 30.0819 39.7448 30.1633 39.6823C30.2447 39.6199 30.313 39.542 30.3643 39.4531C30.4155 39.3642 30.4488 39.2661 30.4622 39.1644C30.4756 39.0626 30.4688 38.9593 30.4422 38.8602L29.7977 36.4563C30.1941 36.1822 30.4966 35.7929 30.6643 35.341C30.832 34.8892 30.8567 34.3968 30.7352 33.9305L25.6086 14.7992C26.4225 13.6107 26.7331 12.1485 26.4727 10.7318C26.2123 9.31509 25.402 8.05892 24.2188 7.2375V4.6875C24.2188 3.8587 23.8895 3.06384 23.3035 2.47779C22.7174 1.89174 21.9226 1.5625 21.0938 1.5625C20.2649 1.5625 19.4701 1.89174 18.884 2.47779C18.298 3.06384 17.9688 3.8587 17.9688 4.6875V7.2375C16.7855 8.05892 15.9752 9.31509 15.7148 10.7318C15.4544 12.1485 15.765 13.6107 16.5789 14.7992L11.4477 33.9336C11.3265 34.3998 11.352 34.8921 11.5205 35.3433C11.6891 35.7945 11.9927 36.1829 12.3898 36.4555L11.9992 37.9086C7.6977 35.3919 4.52246 31.3244 3.125 26.5406V12.5H14.0625V10.9375H1.5625V48.4375H43.1328C44.5396 48.4354 45.8881 47.8755 46.8826 46.8804C47.8771 45.8854 48.4363 44.5365 48.4375 43.1297V11.7188C48.4358 10.2689 47.8591 8.87882 46.8339 7.85359C45.8087 6.82836 44.4186 6.25165 42.9688 6.25ZM21.875 24.1719V23.4375C21.875 23.2303 21.7927 23.0316 21.6462 22.8851C21.4997 22.7386 21.301 22.6562 21.0938 22.6562C20.8865 22.6562 20.6878 22.7386 20.5413 22.8851C20.3948 23.0316 20.3125 23.2303 20.3125 23.4375V24.1719C19.8582 24.1446 19.4057 24.0925 18.957 24.0156L20.7914 17.1734C20.8922 17.1789 20.9914 17.1891 21.0938 17.1891C21.1961 17.1891 21.2953 17.1789 21.3961 17.1734L23.2305 24.0156C22.7818 24.0925 22.3293 24.1446 21.875 24.1719ZM29.2289 34.332C29.2809 34.5314 29.2528 34.7432 29.1505 34.922C29.0483 35.1009 28.8802 35.2326 28.682 35.2891H28.6773C28.4781 35.3418 28.2661 35.3138 28.0875 35.2109C27.9991 35.1596 27.9219 35.0912 27.8603 35.0096C27.7987 34.928 27.7541 34.835 27.7289 34.7359L22.9305 16.8633C23.4356 16.6823 23.9114 16.4277 24.3422 16.1078L29.2289 34.332ZM19.5312 4.6875C19.5312 4.2731 19.6959 3.87567 19.9889 3.58265C20.2819 3.28962 20.6793 3.125 21.0938 3.125C21.5082 3.125 21.9056 3.28962 22.1986 3.58265C22.4916 3.87567 22.6562 4.2731 22.6562 4.6875V6.48438C21.6372 6.17708 20.5503 6.17708 19.5312 6.48438V4.6875ZM21.0938 7.8125C21.8663 7.8125 22.6216 8.0416 23.2639 8.47082C23.9063 8.90005 24.407 9.51012 24.7027 10.2239C24.9983 10.9377 25.0757 11.7231 24.9249 12.4808C24.7742 13.2386 24.4022 13.9346 23.8559 14.4809C23.3096 15.0272 22.6136 15.3992 21.8558 15.5499C21.0981 15.7007 20.3127 15.6233 19.5989 15.3277C18.8851 15.032 18.275 14.5313 17.8458 13.8889C17.4166 13.2466 17.1875 12.4913 17.1875 11.7188C17.1887 10.6831 17.6007 9.69028 18.333 8.95798C19.0653 8.22569 20.0581 7.81374 21.0938 7.8125ZM12.9578 34.3352L17.8453 16.1078C18.2761 16.4277 18.7519 16.6823 19.257 16.8633L14.4633 34.7398C14.4097 34.9376 14.2806 35.1063 14.1038 35.2098C13.927 35.3133 13.7166 35.3431 13.518 35.293H13.5109C13.3115 35.2379 13.1417 35.1066 13.0382 34.9274C12.9347 34.7482 12.9058 34.5355 12.9578 34.3352ZM46.875 39.1445C46.3663 38.624 45.7587 38.2104 45.0879 37.928C44.4171 37.6456 43.6966 37.5001 42.9688 37.5001C42.2409 37.5001 41.5204 37.6456 40.8496 37.928C40.1788 38.2104 39.5712 38.624 39.0625 39.1445V11.7188C39.0625 10.6827 39.474 9.68918 40.2066 8.95661C40.9392 8.22405 41.9327 7.8125 42.9688 7.8125C44.0048 7.8125 44.9983 8.22405 45.7309 8.95661C46.4635 9.68918 46.875 10.6827 46.875 11.7188V39.1445Z" fill="white"/>
<path d="M21.0937 14.0625C21.5573 14.0625 22.0104 13.925 22.3959 13.6675C22.7813 13.41 23.0817 13.0439 23.2591 12.6157C23.4365 12.1874 23.4829 11.7162 23.3925 11.2615C23.302 10.8069 23.0788 10.3892 22.751 10.0615C22.4233 9.73369 22.0056 9.51047 21.551 9.42004C21.0964 9.3296 20.6251 9.37602 20.1968 9.55341C19.7686 9.7308 19.4025 10.0312 19.145 10.4166C18.8875 10.8021 18.75 11.2552 18.75 11.7187C18.75 12.3404 18.9969 12.9365 19.4365 13.376C19.876 13.8156 20.4721 14.0625 21.0937 14.0625ZM21.0937 10.9375C21.2483 10.9375 21.3993 10.9833 21.5278 11.0692C21.6563 11.155 21.7564 11.277 21.8155 11.4198C21.8747 11.5625 21.8901 11.7196 21.86 11.8712C21.8298 12.0227 21.7554 12.1619 21.6462 12.2712C21.5369 12.3804 21.3977 12.4548 21.2462 12.485C21.0946 12.5151 20.9375 12.4997 20.7948 12.4405C20.652 12.3814 20.53 12.2813 20.4442 12.1528C20.3583 12.0243 20.3125 11.8733 20.3125 11.7187C20.3125 11.5115 20.3948 11.3128 20.5413 11.1663C20.6878 11.0198 20.8865 10.9375 21.0937 10.9375Z" fill="white"/>
</svg>

<svg width="50" height="50" fill="none" xmlns="http://www.w3.org/2000/svg"><path d="M42.969 6.25a5.469 5.469 0 00-5.407 4.688h-9.437V12.5H37.5v30.469a.781.781 0 001.563 0 3.906 3.906 0 117.812 0v.164a3.75 3.75 0 01-3.742 3.742H3.125V30.716a21.171 21.171 0 0018.75 11.471.781.781 0 100-1.562 19.407 19.407 0 01-8.46-1.96l.485-1.809a2.285 2.285 0 002.073-1.718l2.572-9.591a13.99 13.99 0 001.767.212v.803a.781.781 0 101.563 0v-.803a13.992 13.992 0 001.767-.21l2.571 9.586a2.281 2.281 0 002.075 1.719l.645 2.41a.782.782 0 101.51-.404l-.645-2.404a2.35 2.35 0 00.937-2.526L25.61 14.8a5.454 5.454 0 00-1.39-7.563v-2.55a3.125 3.125 0 00-6.25 0v2.55a5.454 5.454 0 00-1.39 7.562l-5.131 19.135a2.344 2.344 0 00.942 2.522L12 37.909A19.508 19.508 0 013.124 26.54V12.5h10.938v-1.563h-12.5v37.5h41.57a5.312 5.312 0 005.304-5.307V11.719A5.475 5.475 0 0042.97 6.25zM21.875 24.172v-.735a.781.781 0 10-1.563 0v.735a12.6 12.6 0 01-1.355-.156l1.834-6.843c.101.006.2.016.303.016.102 0 .201-.01.302-.016l1.834 6.843c-.448.077-.9.129-1.355.156zm7.354 10.16a.788.788 0 01-.547.957h-.005a.781.781 0 01-.817-.28.768.768 0 01-.131-.273L22.93 16.863a5.41 5.41 0 001.412-.755l4.887 18.224zM19.53 4.687a1.563 1.563 0 013.125 0v1.797a5.412 5.412 0 00-3.125 0V4.688zm1.563 3.125a3.906 3.906 0 110 7.812 3.906 3.906 0 010-7.812zm-8.136 26.523l4.887-18.227c.431.32.907.574 1.412.755L14.463 34.74a.781.781 0 01-.945.553h-.007a.788.788 0 01-.553-.958zm33.917 4.81a5.462 5.462 0 00-7.813 0V11.719a3.906 3.906 0 117.813 0v27.425z" fill="#fff"/><path d="M21.094 14.063a2.344 2.344 0 100-4.69 2.344 2.344 0 000 4.69zm0-3.126a.78.78 0 110 1.562.78.78 0 010-1.562z" fill="#fff"/></svg>
